Flat-Remix-Dark/apps/scalable/wine.svg

<svg xmlns="http://www.w3.org/2000/svg" xmlns:xlink="http://www.w3.org/1999/xlink" width="384pt" height="384pt" version="1.1" viewBox="0 0 384 384"> <defs> <filter id="alpha" width="100%" height="100%" x="0%" y="0%" filterUnits="objectBoundingBox"> <feColorMatrix in="SourceGraphic" type="matrix" values="0 0 0 0 1 0 0 0 0 1 0 0 0 0 1 0 0 0 1 0"/> </filter> <mask id="mask0"> <g filter="url(#alpha)"> <rect width="384" height="384" x="0" y="0" style="fill:rgb(0%,0%,0%);fill-opacity:0.301961"/> </g> </mask> <clipPath id="clip1"> <rect width="384" height="384" x="0" y="0"/> </clipPath> <g id="surface5" clip-path="url(#clip1)"> <path style="fill:rgb(0%,0%,0%)" d="M 360.5625 186.730469 C 358.535156 278.394531 283.6875 351.671875 192 351.75 C 100.894531 351.691406 26.28125 279.332031 23.4375 188.269531 C 23.359375 189.511719 23.296875 190.753906 23.25 192 C 23.25 285.199219 98.800781 360.75 192 360.75 C 285.199219 360.75 360.75 285.199219 360.75 192 C 360.714844 190.242188 360.652344 188.484375 360.5625 186.730469 Z M 360.5625 186.730469"/> </g> <mask id="mask1"> <g filter="url(#alpha)"> <rect width="384" height="384" x="0" y="0" style="fill:rgb(0%,0%,0%);fill-opacity:0.301961"/> </g> </mask> <clipPath id="clip2"> <rect width="384" height="384" x="0" y="0"/> </clipPath> <g id="surface8" clip-path="url(#clip2)"> <path style="fill:rgb(100.000%,100.000%,100.000%)" d="M 192 23.25 C 98.800781 23.25 23.25 98.800781 23.25 192 C 23.28125 193.464844 23.335938 194.925781 23.40625 196.390625 C 25.097656 104.46875 100.0625 30.820312 192 30.75 C 283.449219 30.804688 358.214844 103.691406 360.59375 195.109375 C 360.65625 194.074219 360.707031 193.035156 360.75 192 C 360.75 98.800781 285.199219 23.25 192 23.25 Z M 192 23.25"/> </g> </defs> <g> <path style="fill:rgb(100.000%,100.000%,100.000%)" d="M 360.75 192 C 360.75 285.199219 285.199219 360.75 192 360.75 C 98.800781 360.75 23.25 285.199219 23.25 192 C 23.25 98.800781 98.800781 23.25 192 23.25 C 285.199219 23.25 360.75 98.800781 360.75 192 Z M 360.75 192"/> <path style="fill-rule:evenodd;fill:rgb(83.137%,9.803%,9.803%)" d="M 241.382812 133.734375 C 246.460938 171.132812 206.710938 189.125 168.3125 179.992188 C 147.464844 175.03125 134.398438 153.417969 141.5 129.714844 C 175.710938 117.953125 204.601562 141.757812 241.382812 133.734375"/> <path style="fill:rgb(0%,0%,0%)" d="M 251.101562 137.738281 C 249.652344 117.53125 243.378906 99.132812 235.5 81.191406 C 234.710938 79.382812 231.511719 79.984375 229.003906 79.890625 C 233.894531 98.269531 244.984375 118.144531 245.25 139.035156 C 245.679688 172.226562 220.953125 187.140625 189.816406 188.542969 C 158.679688 187.140625 133.953125 172.226562 134.382812 139.035156 C 134.648438 118.144531 145.738281 98.269531 150.628906 79.890625 C 148.121094 79.984375 144.921875 79.382812 144.128906 81.191406 C 136.253906 99.132812 129.980469 117.53125 128.53125 137.738281 C 128.222656 142.050781 128.019531 147.453125 128.53125 152.035156 C 131.933594 182.472656 163.085938 185.460938 177.929688 204.03125 C 186.761719 215.085938 187.199219 293.769531 183.128906 306.074219 C 179.996094 315.539062 167.195312 318.277344 156.480469 319.722656 C 152.574219 320.25 146.179688 319.027344 144.128906 323.625 C 155.082031 325.980469 172.578125 326.746094 189.816406 326.675781 C 207.054688 326.746094 224.550781 325.980469 235.5 323.625 C 233.453125 319.027344 227.058594 320.25 223.152344 319.722656 C 212.4375 318.277344 199.636719 315.539062 196.503906 306.074219 C 192.433594 293.769531 192.871094 215.085938 201.703125 204.03125 C 216.542969 185.460938 247.699219 182.472656 251.101562 152.035156 C 251.613281 147.453125 251.410156 142.050781 251.101562 137.738281"/> <use mask="url(#mask0)" xlink:href="#surface5"/> <use mask="url(#mask1)" xlink:href="#surface8"/> </g> </svg>

<svg width="512" height="512" version="1.1" viewBox="0 0 384 384" xmlns="http://www.w3.org/2000/svg"><defs><clipPath><rect width="384" height="384"/></clipPath><clipPath><rect width="384" height="384"/></clipPath></defs><path d="m360.75 192c0 93.199-75.551 168.75-168.75 168.75-93.199 0-168.75-75.551-168.75-168.75 0-93.199 75.551-168.75 168.75-168.75 93.199 0 168.75 75.551 168.75 168.75z" fill="#fff"/><path transform="scale(.75)" d="m31.064 251c-0.036282 1.6632-0.064453 3.3281-0.064453 5 0 124.27 100.73 225 225 225s225-100.73 225-225c0-1.6719-0.02817-3.3368-0.06445-5-2.6604 121.96-102.34 220-224.94 220s-222.28-98.045-224.94-220z" opacity=".3" stroke-width="1.3333"/><path d="m241.38 133.73c5.0781 37.398-34.672 55.391-73.07 46.258-20.848-4.9609-33.914-26.574-26.812-50.277 34.211-11.762 63.102 12.043 99.883 4.0195" fill="#d41717" fill-rule="evenodd"/><path d="m251.1 137.74c-1.4492-20.207-7.7226-38.605-15.602-56.547-0.78906-1.8086-3.9883-1.207-6.4961-1.3008 4.8906 18.379 15.98 38.254 16.246 59.145 0.42969 33.191-24.297 48.105-55.434 49.508-31.137-1.4024-55.863-16.316-55.434-49.508 0.26563-20.891 11.355-40.766 16.246-59.145-2.5078 0.09375-5.707-0.50781-6.5 1.3008-7.875 17.941-14.148 36.34-15.598 56.547-0.30859 4.3125-0.51172 9.7148 0 14.297 3.4023 30.438 34.555 33.426 49.398 51.996 8.832 11.055 9.2695 89.738 5.1992 102.04-3.1328 9.4648-15.934 12.203-26.648 13.648-3.9062 0.52734-10.301-0.69532-12.352 3.9023 10.953 2.3555 28.449 3.1211 45.688 3.0508 17.238 0.0703 34.734-0.69531 45.684-3.0508-2.0469-4.5977-8.4414-3.375-12.348-3.9023-10.715-1.4453-23.516-4.1836-26.648-13.648-4.0703-12.305-3.6328-90.988 5.1992-102.04 14.84-18.57 45.996-21.559 49.398-51.996 0.51172-4.582 0.3086-9.9844 0-14.297"/><path transform="scale(.75)" d="m256 31c-124.27 0-225 100.73-225 225 0 1.6719 0.028171 3.3368 0.064453 5 2.6604-121.96 102.34-220 224.94-220 122.59 0 222.28 98.045 224.94 220 0.03628-1.6632 0.06445-3.3281 0.06445-5 0-124.27-100.73-225-225-225z" opacity=".1" stroke-width="1.3333"/></svg>
